X:1
T:Title
%%score { ( 1 4 ) | ( 2 3 ) }
L:1/8
M:6/8
K:G
V:1 treble nm="Grand Piano"
V:4 treble 
V:2 bass 
V:3 bass 
V:1
 z3 z2[Q:1/4=100] [G,B,D] | [B,DG]2 [B,DG] [DB]AG | d2 e d2 B/A/ | [G,DG]2 [G,DG] [G,G]A[DB] | %4
[M:5/8] D-D- D3[K:bass] |[M:1/8] [F,A,D] |[M:3/4][K:treble] [G,B,G]2 [B,DG][DB] AG | d2 e d2 B | %8
 d2 BF- [FB][CFA] |[M:3/8] [G,B,DG]3 |[M:4/4] d3 c BGGG | GGGA B2 B>A | G2 z G F[FA] [FA]>[FA] | %13
 [FA]2 z [FA] GB B>B | B2 z2 d3 c | BGGG GGGA | B2 AG d4 | [EGc]4 [DGB] [Gd]3 | %18
[M:3/4] [FA]3 [DB] [B,DG]2- | [B,DG]4 z2 |] %20
V:2
 z3 z2 G,, | z3 .G,3[K:treble] | [G,B,G]2 [G,CG] [G,B,G]2[K:bass] G,,/A,,/ | %3
 B,,2 B,, B,,[A,,F,][G,,G,] |[M:5/8] [F,A,]2 z z2 |[M:1/8] D, |[M:3/4] z2 z .G,3[K:treble] | %7
 [G,B,G]2 [G,CG] [G,B,G]2 [G,G] | [G,B,G]2 .[G,DG]2[K:bass] DD, |[M:3/8] G,,3 | %10
[M:4/4][K:treble] [G,B,G]3 [G,EG] [G,DG][G,B,D][G,B,D][G,B,D] | %11
 [G,B,D][G,B,D][G,B,D][G,CD] [G,DG]2 [G,DG]>[K:bass][G,CD] | %12
 [G,B,D]2 z [G,B,D] [D,A,D][D,C] [D,C]>[D,C] | %13
 [D,C]2 z [D,C][K:treble] [G,B,][G,DG] [G,DG]>[G,DG] | [G,DG]2 z2 [G,B,G]3 [G,EG] | %15
 [G,DG][G,B,D][G,B,D][G,B,D] [G,B,D][G,B,D][G,B,D][G,CD] | [G,DG]2 [G,CD][G,B,D] [G,B,G]4 | %17
 C,4 D, [D,B,]3 |[M:3/4] [D,C]3 [D,C] [G,,G,]2- | [G,,G,]4 z2 |] %20
V:3
 x6 | G,,2 G,, z C[K:treble][G,B,D] | z3 z2[K:bass] G, | x6 |[M:5/8] D,2- [D,-G,] [D,-A,][D,G,] | %5
[M:1/8] x |[M:3/4] G,,2 .G,,2[K:treble] C[G,B,D] | x6 | z2 z[K:bass] .D,3 |[M:3/8] x3 | %10
[M:4/4][K:treble] x8 | x15/2[K:bass] x/ | x8 | x4[K:treble] x4 | x8 | x8 | x8 | x8 |[M:3/4] x6 | %19
 x6 |] %20
V:4
 x6 | x6 | z3 z2 D | z3 .D3 |[M:5/8] z2 B, C[K:bass]B, |[M:1/8] x |[M:3/4][K:treble] x6 | x6 | %8
 z2 z [CA] z2 |[M:3/8] x3 |[M:4/4] x8 | x8 | x8 | x8 | x8 | x8 | x8 | x8 |[M:3/4] x6 | x6 |] %20

